X:1766
T:Edinburgh Castle
O:england
R:Reel
M:C|
A:Westmorland
N:P23? 1/1
K:D
DFA2AG/2F/2A2|DFAD GEEF|\
DFA2 AG/2F/2 AB/2c/2|dBAF EDEF||\
DFd2 ed/2c/2 d2|DFdf edef|\
DFdf ed/2c/2 df|{f}ed/2c/2 df edef||\
(3DEF (3FFF (3FFF F>E|(3DEF (3FFF (3GEE E>F|\
(3DEF (3FFF (3FFF (3FFF| (3dBB (3AFF (3GEE E>F||\
d3f AFdf|AFdf edef|defd eBdF|DD/2D/2 AF E3c|]


